src/main/resources/static/fa/svgs/solid/truck-monster.svg

<svg xmlns="http://www.w3.org/2000/svg" viewBox="0 0 640 512"><!--! Font Awesome Free 6.5.2 by @fontawesome - https://fontawesome.com License - https://fontawesome.com/license/free (Icons: CC BY 4.0, Fonts: SIL OFL 1.1, Code: MIT License) Copyright 2024 Fonticons, Inc. --><path d="M288 64v64H416L368 64H288zM419.2 25.6L496 128h80c17.7 0 32 14.3 32 32v64c17.7 0 32 14.3 32 32s-14.3 32-32 32c-29.2-38.9-75.7-64-128-64s-98.8 25.1-128 64H288c-29.2-38.9-75.7-64-128-64s-98.8 25.1-128 64c-17.7 0-32-14.3-32-32s14.3-32 32-32V160c0-17.7 14.3-32 32-32H224V48c0-26.5 21.5-48 48-48h96c20.1 0 39.1 9.5 51.2 25.6zM152 256h16c12.1 0 22.1 8.9 23.8 20.6c7.6 2.2 14.9 5.3 21.7 9c9.4-7 22.8-6.3 31.3 2.3l11.3 11.3c8.6 8.6 9.3 21.9 2.3 31.3c3.7 6.8 6.8 14.1 9 21.7c11.6 1.7 20.6 11.7 20.6 23.8v16c0 12.1-8.9 22.1-20.6 23.8c-2.2 7.6-5.3 14.9-9 21.7c7 9.4 6.3 22.8-2.3 31.3l-11.3 11.3c-8.6 8.6-21.9 9.3-31.3 2.2c-6.8 3.7-14.1 6.8-21.7 9C190.1 503.1 180.1 512 168 512H152c-12.1 0-22.1-8.9-23.8-20.6c-7.6-2.2-14.9-5.3-21.7-9c-9.4 7.1-22.8 6.3-31.3-2.2L63.8 468.9c-8.6-8.6-9.3-21.9-2.3-31.3c-3.7-6.9-6.8-14.1-9-21.8C40.9 414.1 32 404.1 32 392V376c0-12.1 8.9-22.1 20.6-23.8c2.2-7.6 5.3-14.9 9-21.8c-7-9.4-6.3-22.8 2.3-31.3l11.3-11.3c8.6-8.6 21.9-9.3 31.3-2.3c6.8-3.7 14.1-6.8 21.7-9c1.7-11.6 11.7-20.6 23.8-20.6zm8 176a48 48 0 1 0 0-96 48 48 0 1 0 0 96zM448.2 276.6c1.7-11.6 11.7-20.6 23.8-20.6h16c12.1 0 22.1 8.9 23.8 20.6c7.6 2.2 14.9 5.3 21.8 9c9.4-7 22.8-6.3 31.3 2.3l11.3 11.3c8.6 8.6 9.3 21.9 2.2 31.3c3.7 6.8 6.8 14.1 9 21.7c11.6 1.7 20.6 11.7 20.6 23.8v16c0 12.1-8.9 22.1-20.6 23.8c-2.2 7.6-5.3 14.9-9 21.7c7 9.4 6.3 22.8-2.2 31.3l-11.3 11.3c-8.6 8.6-21.9 9.3-31.3 2.2c-6.9 3.7-14.1 6.8-21.8 9C510.1 503.1 500.1 512 488 512H472c-12.1 0-22.1-8.9-23.8-20.6c-7.6-2.2-14.9-5.3-21.7-9c-9.4 7.1-22.8 6.3-31.3-2.2l-11.3-11.3c-8.6-8.6-9.3-21.9-2.2-31.3c-3.7-6.9-6.8-14.1-9-21.8C360.9 414.1 352 404.1 352 392V376c0-12.1 8.9-22.1 20.6-23.8c2.2-7.6 5.3-14.9 9-21.8c-7-9.4-6.3-22.8 2.2-31.3l11.3-11.3c8.6-8.6 21.9-9.3 31.3-2.3c6.8-3.7 14.1-6.8 21.7-9zM528 384a48 48 0 1 0 -96 0 48 48 0 1 0 96 0z"/></svg>

<svg xmlns="http://www.w3.org/2000/svg" viewBox="0 0 640 512"><!--! Font Awesome Free 6.1.1 by @fontawesome - https://fontawesome.com License - https://fontawesome.com/license/free (Icons: CC BY 4.0, Fonts: SIL OFL 1.1, Code: MIT License) Copyright 2022 Fonticons, Inc. --><path d="M419.2 25.6L496 128H576C593.7 128 608 142.3 608 160V224C625.7 224 640 238.3 640 256C640 273.7 625.7 287.1 608 288C578.8 249.1 532.3 224 480 224C427.7 224 381.2 249.1 351.1 288H288C258.8 249.1 212.3 224 160 224C107.7 224 61.18 249.1 31.99 288C14.32 287.1 0 273.7 0 256C0 238.3 14.33 224 32 224V160C32 142.3 46.33 128 64 128H224V48C224 21.49 245.5 0 272 0H368C388.1 0 407.1 9.484 419.2 25.6H419.2zM288 128H416L368 64H288V128zM168 256C180.1 256 190.1 264.9 191.8 276.6C199.4 278.8 206.7 281.9 213.5 285.6C222.9 278.5 236.3 279.3 244.9 287.8L256.2 299.1C264.7 307.7 265.5 321.1 258.4 330.5C262.1 337.3 265.2 344.6 267.4 352.2C279.1 353.9 288 363.9 288 376V392C288 404.1 279.1 414.1 267.4 415.8C265.2 423.4 262.1 430.7 258.4 437.5C265.5 446.9 264.7 460.3 256.2 468.9L244.9 480.2C236.3 488.7 222.9 489.5 213.5 482.4C206.7 486.1 199.4 489.2 191.8 491.4C190.1 503.1 180.1 512 167.1 512H151.1C139.9 512 129.9 503.1 128.2 491.4C120.6 489.2 113.3 486.1 106.5 482.4C97.09 489.5 83.7 488.7 75.15 480.2L63.83 468.9C55.28 460.3 54.53 446.9 61.58 437.5C57.85 430.7 54.81 423.4 52.57 415.8C40.94 414.1 31.1 404.1 31.1 392V376C31.1 363.9 40.94 353.9 52.57 352.2C54.81 344.6 57.85 337.3 61.58 330.5C54.53 321.1 55.28 307.7 63.83 299.1L75.15 287.8C83.7 279.3 97.09 278.5 106.5 285.6C113.3 281.9 120.6 278.8 128.2 276.6C129.9 264.9 139.9 255.1 151.1 255.1L168 256zM160 432C186.5 432 208 410.5 208 384C208 357.5 186.5 336 160 336C133.5 336 112 357.5 112 384C112 410.5 133.5 432 160 432zM448.2 276.6C449.9 264.9 459.9 256 472 256H488C500.1 256 510.1 264.9 511.8 276.6C519.4 278.8 526.7 281.9 533.5 285.6C542.9 278.5 556.3 279.3 564.9 287.8L576.2 299.1C584.7 307.7 585.5 321.1 578.4 330.5C582.1 337.3 585.2 344.6 587.4 352.2C599.1 353.9 608 363.9 608 376V392C608 404.1 599.1 414.1 587.4 415.8C585.2 423.4 582.1 430.7 578.4 437.5C585.5 446.9 584.7 460.3 576.2 468.9L564.9 480.2C556.3 488.7 542.9 489.5 533.5 482.4C526.7 486.1 519.4 489.2 511.8 491.4C510.1 503.1 500.1 512 488 512H472C459.9 512 449.9 503.1 448.2 491.4C440.6 489.2 433.3 486.1 426.5 482.4C417.1 489.5 403.7 488.7 395.1 480.2L383.8 468.9C375.3 460.3 374.5 446.9 381.6 437.5C377.9 430.7 374.8 423.4 372.6 415.8C360.9 414.1 352 404.1 352 392V376C352 363.9 360.9 353.9 372.6 352.2C374.8 344.6 377.9 337.3 381.6 330.5C374.5 321.1 375.3 307.7 383.8 299.1L395.1 287.8C403.7 279.3 417.1 278.5 426.5 285.6C433.3 281.9 440.6 278.8 448.2 276.6L448.2 276.6zM480 336C453.5 336 432 357.5 432 384C432 410.5 453.5 432 480 432C506.5 432 528 410.5 528 384C528 357.5 506.5 336 480 336z"/></svg>
